images/cotacao/wheat-1.svg

<?xml version="1.0" encoding="UTF-8"?> <svg xmlns="http://www.w3.org/2000/svg" id="Capa_1" height="512" viewBox="0 0 512 512" width="512"><path d="m4.393 486.393c-5.858 5.858-5.858 15.355 0 21.213 5.857 5.858 15.355 5.858 21.213 0l117.865-117.865-21.213-21.213z"></path><path d="m477.527 72.919c19.817-11.353 33.208-32.701 33.209-57.132v-4.522c0-5.523-4.477-10-10-10h-4.523c-24.431 0-45.778 13.391-57.131 33.209 2.47 12.874 2.3 26.158-.527 38.972 12.814-2.827 26.099-2.997 38.972-.527z"></path><path d="m381.317 109.463.003.003 10.27-10.27c25.658-25.66 25.659-67.41-.001-93.069l-3.198-3.198c-3.905-3.906-10.237-3.905-14.142 0l-3.198 3.198c-10.503 10.504-16.708 23.675-18.626 37.333l.916.916c18.002 18.003 27.326 41.447 27.976 65.087z"></path><path d="m509.071 123.609-3.198-3.198c-25.66-25.66-67.41-25.659-93.069-.001l-10.27 10.27.003.003c23.641.651 47.084 9.974 65.087 27.977l.917.917c13.656-1.918 26.826-8.123 37.329-18.625l3.201-3.2c3.905-3.906 3.905-10.238 0-14.143z"></path><path d="m321.855 168.926.003.002 10.27-10.27c25.658-25.66 25.659-67.41-.001-93.069l-3.198-3.198c-3.905-3.905-10.237-3.905-14.142 0l-3.198 3.198c-10.503 10.504-16.708 23.675-18.626 37.333l.916.916c18.002 18.003 27.325 41.447 27.976 65.088z"></path><path d="m446.411 179.872c-25.66-25.66-67.41-25.659-93.069-.001l-10.27 10.271.003.002c23.641.651 47.084 9.974 65.087 27.977l.917.917c13.656-1.918 26.826-8.123 37.329-18.625l3.201-3.201c3.906-3.905 3.906-10.237 0-14.142z"></path><path d="m262.393 228.388.003.003 10.27-10.27c25.658-25.659 25.659-67.409-.001-93.069l-3.198-3.198c-3.905-3.906-10.237-3.905-14.142 0l-3.198 3.198c-10.503 10.504-16.708 23.675-18.626 37.333l.916.916c18.002 18.002 27.325 41.446 27.976 65.087z"></path><path d="m386.949 239.335c-25.66-25.66-67.41-25.659-93.069-.001l-10.27 10.27.003.003c23.641.651 47.084 9.974 65.087 27.977l.917.917c13.656-1.918 26.826-8.123 37.329-18.625l3.201-3.2c3.906-3.905 3.906-10.237 0-14.143z"></path><path d="m153.741 243.975-3.198-3.198c-3.905-3.905-10.237-3.905-14.142 0l-3.198 3.198c-25.7 25.702-25.699 67.371.002 93.072l10.267 10.267 10.27-10.27c25.658-25.659 25.659-67.409-.001-93.069z"></path><path d="m268.025 358.259c-25.66-25.66-67.41-25.659-93.069-.001l-10.27 10.271 10.267 10.267c25.701 25.701 67.37 25.702 93.072.002l3.198-3.198c3.906-3.905 3.906-10.237 0-14.143z"></path><path d="m202.931 287.85.003.002 10.27-10.27c25.658-25.66 25.659-67.41-.001-93.069l-3.198-3.198c-3.905-3.905-10.237-3.905-14.142 0l-3.198 3.198c-10.503 10.504-16.708 23.675-18.626 37.333l.916.916c18.002 18.003 27.325 41.447 27.976 65.088z"></path><path d="m327.487 298.796c-25.66-25.66-67.41-25.659-93.069-.001l-10.27 10.271.003.002c23.641.651 47.084 9.974 65.087 27.977l.917.917c13.656-1.918 26.826-8.123 37.329-18.625l3.201-3.201c3.906-3.905 3.906-10.237 0-14.142z"></path></svg>

<svg width="512" height="512" viewBox="0 0 512 512" fill="none" xmlns="http://www.w3.org/2000/svg">
<g clip-path="url(#clip0)">
<path d="M4.39301 486.393C-1.46499 492.251 -1.46499 501.748 4.39301 507.606C10.25 513.464 19.748 513.464 25.606 507.606L143.471 389.741L122.258 368.528L4.39301 486.393Z" fill="black"/>
<path d="M477.527 72.919C497.344 61.566 510.735 40.218 510.736 15.787V11.265C510.736 5.74201 506.259 1.26501 500.736 1.26501H496.213C471.782 1.26501 450.435 14.656 439.082 34.474C441.552 47.348 441.382 60.632 438.555 73.446C451.369 70.619 464.654 70.449 477.527 72.919Z" fill="black"/>
<path d="M381.317 109.463L381.32 109.466L391.59 99.196C417.248 73.536 417.249 31.786 391.589 6.127L388.391 2.929C384.486 -0.976997 378.154 -0.975997 374.249 2.929L371.051 6.127C360.548 16.631 354.343 29.802 352.425 43.46L353.341 44.376C371.343 62.379 380.667 85.823 381.317 109.463V109.463Z" fill="black"/>
<path d="M509.071 123.609L505.873 120.411C480.213 94.751 438.463 94.752 412.804 120.41L402.534 130.68L402.537 130.683C426.178 131.334 449.621 140.657 467.624 158.66L468.541 159.577C482.197 157.659 495.367 151.454 505.87 140.952L509.071 137.752C512.976 133.846 512.976 127.514 509.071 123.609V123.609Z" fill="black"/>
<path d="M321.855 168.926L321.858 168.928L332.128 158.658C357.786 132.998 357.787 91.248 332.127 65.589L328.929 62.391C325.024 58.486 318.692 58.486 314.787 62.391L311.589 65.589C301.086 76.093 294.881 89.264 292.963 102.922L293.879 103.838C311.881 121.841 321.204 145.285 321.855 168.926V168.926Z" fill="black"/>
<path d="M446.411 179.872C420.751 154.212 379.001 154.213 353.342 179.871L343.072 190.142L343.075 190.144C366.716 190.795 390.159 200.118 408.162 218.121L409.079 219.038C422.735 217.12 435.905 210.915 446.408 200.413L449.609 197.212C453.515 193.307 453.515 186.975 449.609 183.07L446.411 179.872Z" fill="black"/>
<path d="M262.393 228.388L262.396 228.391L272.666 218.121C298.324 192.462 298.325 150.712 272.665 125.052L269.467 121.854C265.562 117.948 259.23 117.949 255.325 121.854L252.127 125.052C241.624 135.556 235.419 148.727 233.501 162.385L234.417 163.301C252.419 181.303 261.742 204.747 262.393 228.388V228.388Z" fill="black"/>
<path d="M386.949 239.335C361.289 213.675 319.539 213.676 293.88 239.334L283.61 249.604L283.613 249.607C307.254 250.258 330.697 259.581 348.7 277.584L349.617 278.501C363.273 276.583 376.443 270.378 386.946 259.876L390.147 256.676C394.053 252.771 394.053 246.439 390.147 242.533L386.949 239.335Z" fill="black"/>
<path d="M153.741 243.975L150.543 240.777C146.638 236.872 140.306 236.872 136.401 240.777L133.203 243.975C107.503 269.677 107.504 311.346 133.205 337.047L143.472 347.314L153.742 337.044C179.4 311.385 179.401 269.635 153.741 243.975V243.975Z" fill="black"/>
<path d="M268.025 358.259C242.365 332.599 200.615 332.6 174.956 358.258L164.686 368.529L174.953 378.796C200.654 404.497 242.323 404.498 268.025 378.798L271.223 375.6C275.129 371.695 275.129 365.363 271.223 361.457L268.025 358.259Z" fill="black"/>
<path d="M202.931 287.85L202.934 287.852L213.204 277.582C238.862 251.922 238.863 210.172 213.203 184.513L210.005 181.315C206.1 177.41 199.768 177.41 195.863 181.315L192.665 184.513C182.162 195.017 175.957 208.188 174.039 221.846L174.955 222.762C192.957 240.765 202.28 264.209 202.931 287.85V287.85Z" fill="black"/>
<path d="M327.487 298.796C301.827 273.136 260.077 273.137 234.418 298.795L224.148 309.066L224.151 309.068C247.792 309.719 271.235 319.042 289.238 337.045L290.155 337.962C303.811 336.044 316.981 329.839 327.484 319.337L330.685 316.136C334.591 312.231 334.591 305.899 330.685 301.994L327.487 298.796Z" fill="black"/>
</g>
<defs>
<clipPath id="clip0">
<rect width="512" height="512" fill="white"/>
</clipPath>
</defs>
</svg>
